lib/svgs/talk.svg

<svg xmlns="http://www.w3.org/2000/svg" viewBox="0 0 20 20">
    <path fill="#000" fill-rule="evenodd" d="M18,9.25 C18,5.8125 14.625,3 10.5,3 C6.375,3 3,5.8125 3,9.25 C3,12.6875 6.375,15.5 10.5,15.5 C11.125,15.5 11.75,15.4375 12.375,15.3125 L15.875,16.6875 C15.9375,16.6875 16,16.75 16.125,16.75 C16.25,16.75 16.375,16.6875 16.5,16.625 C16.6875,16.5 16.75,16.25 16.75,16.0625 L16.4375,13.125 C17.4375,12 18,10.625 18,9.25 L18,9.25 L18,9.25 Z M11.75,11.125 L7.375,11.125 L7.375,9.875 L11.75,9.875 L11.75,11.125 L11.75,11.125 L11.75,11.125 Z M13.625,8.625 L7.375,8.625 L7.375,7.375 L13.625,7.375 L13.625,8.625 L13.625,8.625 L13.625,8.625 Z"/>
</svg>

<svg xmlns="http://www.w3.org/2000/svg" viewBox="0 0 20 20">
    <path fill="#000" fill-rule="evenodd" d="M18 9.25C18 5.812 14.625 3 10.5 3S3 5.813 3 9.25c0 3.438 3.375 6.25 7.5 6.25a9.54 9.54 0 0 0 1.875-.188l3.5 1.376c.063 0 .125.062.25.062s.25-.063.375-.125c.188-.125.25-.375.25-.563l-.313-2.937C17.438 12 18 10.625 18 9.25m-6.25 1.875H7.375v-1.25h4.375v1.25m1.875-2.5h-6.25v-1.25h6.25v1.25"/>
</svg>
